!!!COM: Beethoven
!!!OTL: Six Variations on an Original Theme
!!!Variation: Variation 5 b
**function	**harm	**kern	**kern
*	*	*clefF4	*clefG2
*	*	*k[f#c#]	*k[f#c#]
*M2/4	*M2/4	*M2/4	*M2/4
*D:	*D:	*D:	*D:
=89	=89	=89	=89
*	*	*^	*^
2D	2viioD7b/V	2B	(16BLL	(16dLL	2d
.	.	.	16F	16g#	.
.	.	.	16D	16b	.
.	.	.	16FJJ	16g#JJ	.
.	.	.	16DLL	16bLL	.
.	.	.	16F	16g#	.
.	.	.	16D	16b	.
.	.	.	16AAJJ)	16ddJJ)	.
=90	=90	=90	=90	=90	=90
2D	2V7	4.c#	(16c#LL	(16eLL	2e
.	.	.	16G	16g	.
.	.	.	16E	16cc#	.
.	.	.	16GJJ	16gJJ	.
.	.	.	16ELL	16cc#LL	.
.	.	.	16G	16g	.
.	.	8r	16E	16cc#	.
.	.	.	16AAJJ)	16eeJJ)	.
=91	=91	=91	=91	=91	=91
2D	2V7	4.c#	(16c#LL	(16eLL	2e
.	.	.	16G	16g	.
.	.	.	16E	16cc#	.
.	.	.	16GJJ	16gJJ	.
.	.	.	16ELL	16cc#LL	.
.	.	.	16G	16g	.
.	.	8r	16E	16cc#	.
.	.	.	16AAJJ)	16eeJJ)	.
=92	=92	=92	=92	=92	=92
2T	2I	4.d	(16dLL	(16f#LL	2f#
.	.	.	16A	16a	.
.	.	.	16F#	16dd	.
.	.	.	16AJJ	16aJJ	.
.	.	.	16F#LL	16ddLL	.
.	.	.	16A	16a	.
.	.	8r	16F#	16dd	.
.	.	.	16AAJJ)	16ff#JJ)	.
=93	=93	=93	=93	=93	=93
2T	2I	2A	(16ALL	(16ddLL	2dd
.	.	.	16F#	16ff#	.
.	.	.	16D	16aa	.
.	.	.	16F#JJ	16ff#JJ	.
.	.	.	16DLL	16aaLL	.
.	.	.	16F#	16ff#	.
.	.	.	16D	16aa	.
.	.	.	16AAJJ)	16dddJJ)	.
=94	=94	=94	=94	=94	=94
2T	2I	2A	(16ALL	(16ddLL	2dd
.	.	.	16F#	16ff#	.
.	.	.	16D	16aa	.
.	.	.	16F#JJ	16ff#JJ	.
.	.	.	16DLL	16aaLL	.
.	.	.	16F#	16ff#	.
.	.	.	16D	16aa	.
.	.	.	16AAJJ)	16dddJJ)	.
=95	=95	=95	=95	=95	=95
2D	2V7	2A	(16ALL	(16eeLL	8r
.	.	.	16G	16gg	.
.	.	.	16E	16aa	8cc#
.	.	.	16GJJ	16ggJJ	.
.	.	.	16ELL	16aaLL	8r
.	.	.	16G	16gg	.
.	.	.	16E	16aa	8cc#
.	.	.	16AAJJ)	16ccc#JJ)	.
=96	=96	=96	=96	=96	=96
2T	2I	2r	(16F#LL	(16ddLL	2dd
.	.	.	16D	16ff#	.
.	.	.	16AA	16aa	.
.	.	.	16DJJ	16ff#JJ	.
.	.	.	16FF#LL	16aaLL	.
.	.	.	16AA	16ff#	.
.	.	.	16FF#	16aa	.
.	.	.	16DDJJ)	16dddJJ)	.
*	*	*	*	*v	*v
*	*	*v	*v	*
*-	*-	*-	*-
